X:1
T: Peartree
C: Arthel Lane “Doc” Watson & Gaither Carlton
R: Polka
L: 1/8
M: 4/4
K: G
ef|"G"g2f2 e2>d|B2d2- d2ef|g2f2 e2>d2|"Em"BAG2 -G2|
ef|"G"g2f2 e2>d|B2d2- d2z2|"C"d2<e2 "D"d2>B2|"G"A2G2 -G2:|
DE|"G"GABG A2>G2|"C"E2A2 -A2DE|"G"GABG A2>G2|"D"E2D2 -D2|
DE|"G"GABG "G/F#"A2>G2|"Em"E2A2 -A2z2|"C"A2<B2 "D"A2>G2|"G"E2D2 -D2:|